X:1
T:D Major Oliver Holden, 1792
T:Isaac Watts, 1709 (Hymn 3, Book 1) 
T:Christmas Transcribed from American Harmony, 1792.
%%score [ 1 2 3 4 ]
L:1/8
Q:1/4=90
M:3/4
K:D
V:1 treble nm="Treble" snm="Tr."
V:2 treble nm="Counter" snm="C."
V:3 treble-8 nm="Tenor" snm="T."
V:4 bass nm="Bass" snm="B."
V:1
 z2 | z6 | z6 | z6 | z6 | z6 | z4"^Ma – ry           the    won – drous" A2 | (d>e f2) g2 | %8
 (f>e d2) A2 |"^vir       –       –      gin    bears," (d>c (3def) ed | e4 d2 | (d>c B2) A2 | %12
 (g2 f2) e2 | f4"^Mary the wondrous virgin bears," A2 | dd dd fe | d4 A2 | AA AA AA | A4 z A | %18
 dd dd fd | d4 d2 | (f>e d2) c>d | (e2 d2) c2 | d4 z2 ||[M:2/4] z4 | %24
"^Glory,    glory,      glo         –        –           ry," f2 e2 | f2 e2 | (dcde/d/ | c2) c z | %28
 z4 | z4 |"^Glo  – ry  to   God      on           high,               And" de fg | a2 a2 | a4- | %33
 a2 F2 |"^heavenly  peace  on    earth," F2 G2 | F2 E2 | D4 | z4 | z4 | %39
 z2"^Good       will  to men, to     an     –     gels          joy,  Good" e2 | cB AG | AB cd | %42
 e2 e2 | %43
"^will to men, to  an  – gels      joy, ____________   to      an–gels   joy,  to           an  –  gels  joy,  At   the  Re–dee–mer's birth," AA ed | %44
 cB cd | e4- | e2 e2 | f2 ^g2 | a2 a2 ||[M:3/4] (g2 f2) e2 | f4 d2 | f4 d2 | (e2 d2) c2 | d4 |] %54
V:2
 z2 | z6 | z6 | z6 | z6 | z6 | z6 | z6 | z6 | z6 | %10
 z4"^And    Je       –       –    sus      is             the   child.                                                                       Ma –" F2 | %11
 F>EF>G A2 | B4 A2 | A6 | z6 | z4 D2 | %16
"^–ry the wondrous virgin bears,   Mary the wondrous virgin bears, And  Je        –        sus         is        the  child." FF FF FE | %17
 F4 z F | AA AA AA | A4 A2 | (A2 B2) A2 | B4 A2 | A4 z2 ||[M:2/4] z4 | z4 | z4 | z4 | z4 | z4 | %29
 z4 | z4 |"^Glo  –  ry  to    God  on  high, And" DE FG | A2 A2 | A2 A2 | %34
"^heavenly  peace  on    earth," A2 B2 | A2 G2 | F4 | z4 | z4 | z4 | %40
 z2"^to            men, and an–gels    joy," E2 | EE AA | E2 z2 | %43
 z2"^to          an  –  gels     joy, _____________   to      an–gels   joy,  to           an  –  gels  joy,  At   the  Re–dee–mer's birth," A2 | %44
 A2 A2 | A4- | A2 A2 | F2 E2 | E2 D2 ||[M:3/4] B4 A2 | A4 A2 | A4 A2 | B4 A2 | F4 |] %54
V:3
 z2 | z6 | z6 | z4"^1. The pro – mise     is           fulfilled." A2 | (d2 c2) B2 | (c2 B2) ^A2 | %6
 B4 z2 | z6 | z6 | z6 | z4 A2 | d>cd>e f2 | (e2 d2) c2 | d6 | z6 | z4 A2 | dd dd fe | d4 z d | %18
 ff ff ag | f4 A2 | d>cd>e f2 | (g2 f2) e2 | d4 z2 ||[M:2/4] z4 | z4 | z4 | z4 | z4 | z4 | %29
"^Glo –  ry  to   God    on         high, __________________________" de fg | a2 a2 | a4- | a4- | %33
 a2 z2 | z4 | z4 | z4 | z4 | %38
 z2"^Good will to men, to     an    –    gels         joy, _____________________" e2 | cB AG | %40
 AB cd | e4- | e2 z2 | z4 | z4 | %45
"^Good will to men, to  an–gels     joy,  to           an  –  gels  joy,  At   the  Re–dee–mer's birth," e2 AA | %46
 e2 d2 | c2 B2 | A2 d2 ||[M:3/4] d4 c2 | d4 A2 | d4 f2 | (g2 f2) e2 | d4 |] %54
V:4
"^1. Be – hold,      the    grace _____  ap–pears," D,2 | (D,>E, F,2) G,2 | F,>E,F,>G, A,2 | %3
 D,4 D,2 | (D,>E, F,2) G,2 | F,4 F,2 | B,,4"^Ma – ry           the    won – drous" D,2 | D,4 E,2 | %8
 (F,2 G,2) F,2 |"^vir       –       –      gin    bears," (G,>F, E,2) E,2 | A,4 D,2 | D,4 D,2 | %12
 G,4 A,2 | D,6 | z6 | z4 D,2 | D,D, D,D, D,A,, | D,4 z D, | DD DD DA, | D4 D,2 | (D,2 G,2) F,2 | %21
 (E,2 A,2) A,2 | D,4 z2 ||[M:2/4] z4 | %24
"^Glory,    glory,      glo         –        –           ry,       Glo –  ry  to   God    on          high, __________________________________________" D,2 A,2 | %25
 D2 A,2 | (DA,B,E | A,2) A, z | D,E, F,G, | A,2 A,2 | D4- | D4- | D4- | D2 z2 | z4 | z4 | z4 | %37
"^Good will to men, to      an    –    gels         joy, _________________________________________    to" A,2 F,E, | %38
 D,2 A,,2 | D,E, F,G, | A,4- | A,4- | A,2 A,2 | %43
"^an   –   gels      joy, ____________________________    to  an–gels     joy,  to           an  –  gels  joy,  At   the  Re–dee–mer's birth," A,2 A,2 | %44
 A,4- | A,4- | A,2 A,2 | A,2 E,2 | A,2 D,2 ||[M:3/4] (G,2 A,2) A,,2 | D,4 D,2 | D,4 D,2 | G,4 A,2 | %53
 D,4 |] %54

